img/fb.svg

<svg width="62" height="61" viewBox="0 0 62 61" fill="none" xmlns="http://www.w3.org/2000/svg">
<rect x="1.04297" y="0.782227" width="59.7182" height="59.7182" rx="9.5" stroke="#E73087"/>
<path d="M37.5634 16.9721C33.6768 16.6788 31.7334 18.2371 31.7334 21.6471V21.9221H37.5634V28.7421H31.7334V49.4221H24.6384V28.7421H20.6784V21.9221H24.6384V21.6471C24.6384 17.7605 25.7201 14.8088 27.8834 12.7921C30.0468 10.7755 33.2734 9.89545 37.5634 10.1521V16.9721Z" fill="#E73087"/>
</svg>

<svg width="62" height="61" fill="none" xmlns="http://www.w3.org/2000/svg"><rect x="1.043" y=".782" width="59.718" height="59.718" rx="9.5" stroke="#E73087"/><path d="M37.563 16.972c-3.886-.293-5.83 1.265-5.83 4.675v.275h5.83v6.82h-5.83v20.68h-7.095v-20.68h-3.96v-6.82h3.96v-.275c0-3.886 1.082-6.838 3.245-8.855 2.164-2.017 5.39-2.897 9.68-2.64v6.82z" fill="#E73087"/></svg>
